app/dist/common/images/minmetals-capital.svg

<svg height="18" viewBox="0 0 18 18" width="18" xmlns="http://www.w3.org/2000/svg"><path d="m0 0h18v18h-18z" fill="#f0f3fa"/><ellipse cx="9" cy="8.5" fill="#c51426" rx="5" ry="4.5"/><path d="m6.33 9.15v.6h1.24l1.43-.89 1.43.9h1.24v-.6h-.32l-.58-2.12h-1.37l-.4.4-.39-.4h-1.37l-.6 2.12h-.3zm2.57-1.05-.12-.29h-.38l-.4 1.04h.67l.17-.3.16.23.16-.23.17.3h.67l-.4-1.05h-.38l-.12.3z" fill="#fff" fill-rule="evenodd"/><path d="m4 12.75v1.25h10v-1.25l-4.85-4.2-.15.2-.17-.2z"/><path d="m4.63 13h-.3l4.52-4.45z" fill="#fff"/><path d="m5.98 13h-.98l3.86-4.45z" fill="#d9d9d9"/><path d="m6.76 13h-.38l2.5-4.4-2.11 4.4z" fill="#fff"/><path d="m7.92 13h-.76l1.77-4.37z" fill="#d9d9d9"/><path d="m8.84 13h-.54l.7-4.33-.17 4.33z" fill="#fff"/><path d="m9.2 13h.75l-.9-4.32.14 4.32z" fill="#d9d9d9"/><path d="m10.36 13h.4l-1.66-4.36z" fill="#fff"/><path d="m11.13 13h.79l-2.82-4.42z" fill="#d9d9d9"/><path d="m12.3 13h.37l-3.53-4.45z" fill="#fff"/><path d="m13.08 13h.58l-4.5-4.45z" fill="#d9d9d9"/></svg>

<!-- by TradingView --><svg width="18" height="18" viewBox="0 0 18 18" xmlns="http://www.w3.org/2000/svg"><path fill="#F0F3FA" d="M0 0h18v18H0z"/><ellipse cx="9" cy="8.5" rx="5" ry="4.5" fill="#C51426"/><path fill-rule="evenodd" d="M6.33 9.15v.6h1.24L9 8.86l1.43.9h1.24v-.6h-.32l-.58-2.12H9.4l-.4.4-.39-.4H7.24l-.6 2.12h-.3ZM8.9 8.1l-.12-.29H8.4L8 8.85h.67l.17-.3.16.23.16-.23.17.3H10L9.6 7.8h-.38l-.12.3h-.2Z" fill="#fff"/><path d="M4 12.75V14h10v-1.25l-4.85-4.2-.15.2-.17-.2L4 12.75Z"/><path d="M4.63 13h-.3l4.52-4.45L4.63 13Z" fill="#fff"/><path d="M5.98 13H5l3.86-4.45L5.98 13Z" fill="#D9D9D9"/><path d="M6.76 13h-.38l2.5-4.4L6.77 13Z" fill="#fff"/><path d="M7.92 13h-.76l1.77-4.37L7.92 13Z" fill="#D9D9D9"/><path d="M8.84 13H8.3L9 8.67 8.83 13Z" fill="#fff"/><path d="M9.2 13h.75l-.9-4.32.14 4.32Z" fill="#D9D9D9"/><path d="M10.36 13h.4L9.1 8.64 10.36 13Z" fill="#fff"/><path d="M11.13 13h.79L9.1 8.58 11.13 13Z" fill="#D9D9D9"/><path d="M12.3 13h.37L9.14 8.55 12.3 13Z" fill="#fff"/><path d="M13.08 13h.58l-4.5-4.45L13.08 13Z" fill="#D9D9D9"/></svg>
